X:101
M:6/8
L:1/8
Q:3/8=100
K:A Minor
E|A>BA c2d|e2c dcB|e2A A>BA|^G3 z2E|A>BA c2d|e2c deg|e2c dcB|
e2c agf|e2c dcB|A3 z2e/g/|a>ba g2f|e2c deg|e2A A>BA|^G3 z2E|
c>Bc d>^cd|e>^de c'2 b/a/|e2c d>cB|A3 z3||

